X: 10743
T: BHANNERACH DHON NA CHRI'
O: Gaelic air.
Q: "Slow."
%R: air, waltz, jig
N: This is version 2, for ABC software that understands crescendo/diminuendo symbols.
U: p=!crescendo(!
U: P=!crescendo)!
U: Q=!diminuendo(!
U: q=!diminuendo)!
B: W. Hamilton "Universal Tune-Book" Vol. 1 Glasgow 1844 p.74 #3
S: http://imslp.org/wiki/Hamilton's_Universal_Tune-Book_(Various)
Z: 2016 John Chambers <jc:trillian.mit.edu>
M: 6/8
L: 1/8
K: Em
%%stretchstaff 0
% - - - - - - - - - - - - - - - - - - - - - - - - -
B, |\
!p!E>FA pBAPd | AQDG F>qED |\
!p!E>F!p!A BAd | BQAF qE2B,B, |\
!f!E>FpA BPAd | AQDG F>qED |\
E>FA !f!BAd | !p!BAF E3 |]
!pp!eB(e/f/) g>fe | dAd F>ED/D/ |\
!f!eB(e/f/) g>fe | Be^d e2B |\
eBpe/f/ g>Pfe | dAQd F>>qED |\
E>pFA BPAd | QB>AqF E3 |]
% - - - - - - - - - - - - - - - - - - - - - - - - -
%%begintext align
%% Burns' song, "The Banks of the Devon," is set to this air.
%%endtext
%%sep 1 1 300

%%sep 1 1 500
%%sep 1 1 500

